;FLAVOR:Marlin
;TIME:22789
;Filament used: 39.9078m
;Layer height: 0.2
;MINX:170.335
;MINY:332.838
;MINZ:0.36
;MAXX:281.024
;MAXY:424.134
;MAXZ:41.11
;Generated with Creality Slicer 4.8.2-218
M140 S60
M105
M190 S60
M104 S200
M105
M109 S200
M82 ;absolute extrusion mode

G28 ;Home

G92 E0 ;Reset Extruder
G1 Z2.0 F3000 ;Move Z Axis up
G1 X10.1 Y20 Z0.28 F5000.0 ;Move to start position
G1 X10.1 Y200.0 Z0.28 F1500.0 E15 ;Draw the first line
G1 X10.4 Y200.0 Z0.28 F5000.0 ;Move to side a little
G1 X10.4 Y20 Z0.28 F1500.0 E30 ;Draw the second line
G92 E0 ;Reset Extruder
G1 Z2.0 F3000 ;Move Z Axis up

G92 E0
G92 E0
G1 F3600 E-5
;LAYER_COUNT:199
;LAYER:-6
M107
G0 F7200 X179.553 Y335.974 Z0.36
;TYPE:SUPPORT-INTERFACE
G1 F3600 E0
G1 F1125 X180.379 Y335.568 E0.22041
G1 X180.512 Y335.509 E0.25525
G1 X181.337 Y335.176 E0.4683
G1 X181.476 Y335.126 E0.50368
G1 X182.318 Y334.856 E0.71543
G1 X182.478 Y334.811 E0.75523
G1 X183.319 Y334.607 E0.96247
G1 X183.463 Y334.577 E0.99769
G1 X184.352 Y334.43 E1.21347
G1 X184.487 Y334.413 E1.24606
G1 X185.389 Y334.33 E1.46297
G1 X185.519 Y334.323 E1.49415
G1 X186.254 Y334.302 E1.67024
G1 X265.762 Y334.302 E20.71025
G1 X266.728 Y334.337 E20.94174
G1 X266.872 Y334.348 E20.97632
G1 X267.743 Y334.444 E21.18616
G1 X267.906 Y334.468 E21.22562
G1 X268.798 Y334.633 E21.44285
G1 X268.916 Y334.659 E21.47179
G1 X269.777 Y334.884 E21.6849
G1 X269.947 Y334.935 E21.7274
G1 X270.75 Y335.209 E21.93058
G1 X270.906 Y335.269 E21.97061
G1 X271.722 Y335.615 E22.18286
G1 X271.877 Y335.687 E22.22379
G1 X272.638 Y336.079 E22.42878
G1 X272.78 Y336.159 E22.46781
G1 X273.519 Y336.609 E22.67501
G1 X273.662 Y336.704 E22.71613
G1 X274.386 Y337.222 E22.92931
G1 X274.493 Y337.304 E22.96159
G1 X275.203 Y337.895 E23.18282
G1 X275.282 Y337.965 E23.20809
G1 X275.828 Y338.482 E23.38816
G1 X276.042 Y338.696 E23.46063
G1 X276.705 Y339.411 E23.69414
G1 X276.803 Y339.526 E23.73032
G1 X277.332 Y340.186 E23.93288
G1 X277.443 Y340.335 E23.97737
G1 X277.936 Y341.05 E24.18535
G1 X278.037 Y341.209 E24.23046
G1 X278.462 Y341.935 E24.43192
G1 X278.535 Y342.07 E24.46867
G1 X278.939 Y342.891 E24.68779
G1 X278.982 Y342.988 E24.7132
G1 X279.325 Y343.836 E24.93226
G1 X279.373 Y343.971 E24.96657
G1 X279.644 Y344.813 E25.17839
G1 X279.691 Y344.98 E25.21994
G1 X279.898 Y345.834 E25.43037
G1 X279.923 Y345.955 E25.45996
G1 X280.073 Y346.861 E25.67987
G1 X280.089 Y346.989 E25.71077
G1 X280.17 Y347.875 E25.92382
G1 X280.18 Y348.04 E25.96341
G1 X280.2 Y348.759 E26.13566
G1 X280.2 Y408.268 E40.38645
G1 X280.165 Y409.23 E40.61698
G1 X280.154 Y409.374 E40.65156
G1 X280.058 Y410.242 E40.86069
G1 X280.036 Y410.398 E40.89842
G1 X279.869 Y411.3 E41.1181
G1 X279.843 Y411.418 E41.14703
G1 X279.621 Y412.268 E41.35741
G1 X279.567 Y412.449 E41.40264
G1 X279.297 Y413.241 E41.60303
G1 X279.233 Y413.408 E41.64585
G1 X278.888 Y414.221 E41.85735
G1 X278.815 Y414.379 E41.89903
G1 X278.421 Y415.145 E42.10531
G1 X278.357 Y415.259 E42.13662
G1 X277.893 Y416.021 E42.35026
G1 X277.798 Y416.164 E42.39138
G1 X277.28 Y416.888 E42.60456
G1 X277.203 Y416.99 E42.63517
G1 X276.607 Y417.705 E42.85807
G1 X276.537 Y417.784 E42.88335
G1 X276.02 Y418.33 E43.06342
G1 X275.806 Y418.544 E43.13589
G1 X275.104 Y419.195 E43.36516
G1 X274.98 Y419.302 E43.40439
G1 X274.316 Y419.834 E43.60814
G1 X274.167 Y419.945 E43.65263
G1 X273.454 Y420.437 E43.86008
G1 X273.3 Y420.535 E43.90379
G1 X272.55 Y420.974 E44.1119
G1 X272.447 Y421.03 E44.13998
G1 X271.621 Y421.436 E44.36039
G1 X271.5 Y421.49 E44.39212
G1 X270.666 Y421.827 E44.60753
G1 X270.517 Y421.88 E44.6454
G1 X269.682 Y422.148 E44.85541
G1 X269.521 Y422.193 E44.89544
G1 X268.681 Y422.397 E45.10244
G1 X268.537 Y422.427 E45.13767
G1 X267.648 Y422.574 E45.35345
G1 X267.513 Y422.591 E45.38603
G1 X266.611 Y422.674 E45.60295
G1 X266.481 Y422.681 E45.63413
G1 X265.746 Y422.702 E45.81021
G1 X186.238 Y422.702 E64.85023
G1 X185.272 Y422.667 E65.08171
G1 X185.128 Y422.656 E65.1163
G1 X184.257 Y422.56 E65.32614
G1 X184.094 Y422.536 E65.3656
G1 X183.202 Y422.371 E65.58283
G1 X183.084 Y422.345 E65.61177
G1 X182.223 Y422.12 E65.82488
G1 X182.053 Y422.069 E65.86738
G1 X181.25 Y421.795 E66.07056
G1 X181.093 Y421.735 E66.11081
G1 X180.278 Y421.389 E66.32284
G1 X180.123 Y421.317 E66.36377
G1 X179.36 Y420.924 E66.5693
G1 X179.22 Y420.845 E66.6078
G1 X178.481 Y420.395 E66.81499
G1 X178.338 Y420.3 E66.85611
G1 X177.614 Y419.782 E67.06929
G1 X177.507 Y419.7 E67.10157
G1 X176.797 Y419.109 E67.3228
G1 X176.716 Y419.037 E67.34875
G1 X176.172 Y418.522 E67.52814
G1 X175.944 Y418.293 E67.60553
G1 X175.313 Y417.613 E67.82768
G1 X175.209 Y417.492 E67.86588
G1 X174.646 Y416.79 E68.08138
G1 X174.564 Y416.679 E68.11443
G1 X174.064 Y415.954 E68.32533
G1 X173.963 Y415.795 E68.37044
G1 X173.528 Y415.052 E68.57662
G1 X173.47 Y414.945 E68.60577
G1 X173.066 Y414.123 E68.8251
G1 X173.007 Y413.99 E68.85995
G1 X172.677 Y413.172 E69.07117
G1 X172.619 Y413.009 E69.11261
G1 X172.351 Y412.174 E69.32261
G1 X172.309 Y412.024 E69.35992
G1 X172.104 Y411.18 E69.56791
G1 X172.072 Y411.021 E69.60675
G1 X171.927 Y410.143 E69.81985
G1 X171.911 Y410.015 E69.85074
G1 X171.827 Y409.102 E70.07031
G1 X171.82 Y408.968 E70.10244
G1 X171.8 Y408.245 E70.27564
G1 X171.8 Y348.736 E84.52644
G1 X171.835 Y347.774 E84.75697
G1 X171.846 Y347.624 E84.79298
G1 X171.946 Y346.723 E85.01007
G1 X171.964 Y346.606 E85.03842
G1 X172.132 Y345.698 E85.25955
G1 X172.159 Y345.578 E85.28901
G1 X172.387 Y344.705 E85.50508
G1 X172.426 Y344.577 E85.53712
G1 X172.703 Y343.763 E85.74303
G1 X172.767 Y343.596 E85.78586
G1 X173.113 Y342.78 E85.99811
G1 X173.189 Y342.617 E86.04118
G1 X173.577 Y341.864 E86.24403
G1 X173.657 Y341.722 E86.28307
G1 X174.107 Y340.983 E86.49026
G1 X174.202 Y340.839 E86.53158
G1 X174.725 Y340.108 E86.74682
G1 X174.797 Y340.014 E86.77518
G1 X175.393 Y339.299 E86.99808
G1 X175.463 Y339.22 E87.02336
G1 X175.98 Y338.674 E87.20343
G1 X176.21 Y338.445 E87.28115
G1 X176.885 Y337.818 E87.50177
G1 X177.024 Y337.699 E87.54559
G1 X177.684 Y337.17 E87.74815
G1 X177.833 Y337.059 E87.79264
G1 X178.548 Y336.566 E88.00062
G1 X178.7 Y336.469 E88.0438
G1 X179.45 Y336.03 E88.25191
G1 X179.553 Y335.974 E88.27999
G0 F7200 X179.2 Y336.176
G1 F1125 X179.2 Y420.832 E108.55281
G0 F7200 X182.4 Y422.166
G1 F1125 X182.4 Y334.832 E129.46695
G0 F7200 X185.6 Y334.32
G1 F1125 X185.6 Y422.678 E150.6263
G0 F7200 X188.8 Y422.702
G1 F1125 X188.8 Y334.302 E171.79571
G0 F7200 X192 Y334.302
G1 F1125 X192 Y422.702 E192.96512
G0 F7200 X195.2 Y422.702
G1 F1125 X195.2 Y334.302 E214.13453
G0 F7200 X198.4 Y334.302
G1 F1125 X198.4 Y422.702 E235.30394
G0 F7200 X201.6 Y422.702
G1 F1125 X201.6 Y334.302 E256.47335
G0 F7200 X204.8 Y334.302
G1 F1125 X204.8 Y422.702 E277.64276
G0 F7200 X208 Y422.702
G1 F1125 X208 Y334.302 E298.81217
G0 F7200 X211.2 Y334.302
G1 F1125 X211.2 Y422.702 E319.98158
G0 F7200 X214.4 Y422.702
G1 F1125 X214.4 Y334.302 E341.15099
G0 F7200 X217.6 Y334.302
G1 F1125 X217.6 Y422.702 E362.32041
G0 F7200 X220.8 Y422.702
G1 F1125 X220.8 Y334.302 E383.48982
G0 F7200 X224 Y334.302
G1 F1125 X224 Y422.702 E404.65923
G0 F7200 X227.2 Y422.702
G1 F1125 X227.2 Y334.302 E425.82864
G0 F7200 X230.4 Y334.302
G1 F1125 X230.4 Y422.702 E446.99805
G0 F7200 X233.6 Y422.702
G1 F1125 X233.6 Y334.302 E468.16746
G0 F7200 X236.8 Y334.302
G1 F1125 X236.8 Y422.702 E489.33687
G0 F7200 X240 Y422.702
G1 F1125 X240 Y334.302 E510.50628
G0 F7200 X243.2 Y334.302
G1 F1125 X243.2 Y422.702 E531.67569
G0 F7200 X246.4 Y422.702
G1 F1125 X246.4 Y334.302 E552.8451
G0 F7200 X249.6 Y334.302
G1 F1125 X249.6 Y422.702 E574.01451
G0 F7200 X252.8 Y422.702
G1 F1125 X252.8 Y334.302 E595.18392
G0 F7200 X256 Y334.302
G1 F1125 X256 Y422.702 E616.35333
G0 F7200 X259.2 Y422.702
G1 F1125 X259.2 Y334.302 E637.52275
G0 F7200 X262.4 Y334.302
G1 F1125 X262.4 Y422.702 E658.69216
G0 F7200 X265.6 Y422.702
G1 F1125 X265.6 Y334.302 E679.86157
G0 F7200 X268.8 Y334.634
G1 F1125 X268.8 Y422.369 E700.87173
G0 F7200 X272 Y421.25
G1 F1125 X272 Y335.751 E721.34643
G0 F7200 X275.2 Y337.893
G1 F1125 X275.2 Y419.106 E740.79475
G0 F7200 X278.4 Y415.183
G1 F1125 X278.4 Y341.83 E758.36081
G1 F3600 E753.36081
G0 F7200 X279.279 Y340.434
G0 X278.498 Y339.3
G0 X277.065 Y337.647
G0 X275.414 Y336.164
G0 X274.309 Y335.376
G0 X272.515 Y334.37
G0 X271.251 Y333.833
G0 X269.254 Y333.234
G0 X267.938 Y332.993
G0 X265.753 Y332.838
G0 X185.278 Y332.87
G0 X183.201 Y333.136
G0 X181.892 Y333.455
G0 X179.927 Y334.167
G0 X178.732 Y334.755
G0 X176.98 Y335.868
G0 X176.681 Y336.107
G0 X175.202 Y337.383
G0 X176 Y338.654
G1 F3600 E758.36081
G1 F1125 X176 Y418.349 E777.44561
G0 F7200 X172.8 Y413.476
G1 F1125 X172.8 Y343.518 E794.19866
G1 F3600 E789.19866
G0 F300 X172.8 Y343.518 Z0.66
G0 F7200 X171.036 Y344.115
G0 X170.694 Y345.42
G0 X170.387 Y347.505
G0 X170.336 Y348.725
G0 X170.368 Y409.224
G0 X170.634 Y411.3
G0 X170.953 Y412.61
G0 X171.665 Y414.575
G0 X172.253 Y415.77
G0 X173.366 Y417.522
G0 X174.212 Y418.579
G0 X175.851 Y420.228
G0 X177.495 Y421.498
G0 X178.693 Y420.524
;TIME_ELAPSED:190.925488
;LAYER:-5
;TYPE:SUPPORT
G1 F3600 E794.19866
G1 F1125 X179.22 Y420.844 E794.32169
G1 X179.359 Y420.922 E794.3535
G1 X180.123 Y421.316 E794.52505
G1 X180.277 Y421.388 E794.55897
G1 X181.092 Y421.734 E794.73566
G1 X181.249 Y421.794 E794.76921
G1 X182.053 Y422.067 E794.93865
G1 X182.223 Y422.119 E794.97413
G1 X183.05 Y422.335 E795.1447
G1 X172.17 Y411.455 E798.21527
G1 X172.104 Y411.179 E798.2719
G1 X172.072 Y411.02 E798.30427
G1 X171.926 Y410.142 E798.48189
G1 X171.911 Y410.013 E798.50781
G1 X171.826 Y409.1 E798.69079
G1 X171.82 Y408.967 E798.71736
G1 X171.808 Y408.547 E798.80121
G1 X185.951 Y422.69 E802.79267
G1 X186.237 Y422.701 E802.84979
G1 X188.507 Y422.701 E803.30279
G1 X171.8 Y405.993 E808.01801
G1 X171.8 Y403.448 E808.52589
G1 X191.053 Y422.701 E813.9595
G1 X193.598 Y422.701 E814.46739
G1 X171.8 Y400.902 E820.61939
G1 X171.8 Y398.357 E821.12728
G1 X196.144 Y422.701 E827.99768
G1 X198.689 Y422.701 E828.50556
G1 X171.8 Y395.811 E836.09436
G1 X171.8 Y393.265 E836.60244
G1 X201.235 Y422.701 E844.90977
G1 X203.781 Y422.701 E845.41786
G1 X171.8 Y390.72 E854.44358
G1 X171.8 Y388.174 E854.95167
G1 X206.326 Y422.701 E864.69579
G1 X208.872 Y422.701 E865.20387
G1 X171.8 Y385.629 E875.66639
G1 X171.8 Y383.083 E876.17447
G1 X211.417 Y422.701 E887.35539
G1 X213.963 Y422.701 E887.86347
G1 X171.8 Y380.537 E899.76292
G1 X171.8 Y377.992 E900.2708
G1 X216.509 Y422.701 E912.88865
G1 X219.054 Y422.701 E913.39653
G1 X171.8 Y375.446 E926.73277
G1 X171.8 Y372.901 E927.24065
G1 X221.6 Y422.701 E941.29529
G1 X224.145 Y422.701 E941.80317
G1 X171.8 Y370.355 E956.5762
G1 X171.8 Y367.81 E957.08409
G1 X226.691 Y422.701 E972.57551
G1 X229.236 Y422.701 E973.08339
G1 X171.8 Y365.264 E989.29321
G1 X171.8 Y362.718 E989.8013
G1 X231.782 Y422.701 E1006.72965
G1 X234.328 Y422.701 E1007.23774
G1 X171.8 Y360.173 E1024.88449
G1 X171.8 Y357.627 E1025.39257
G1 X236.873 Y422.701 E1043.75772
G1 X239.419 Y422.701 E1044.2658
G1 X171.8 Y355.082 E1063.34934
G1 X171.8 Y352.536 E1063.85742
G1 X241.964 Y422.701 E1083.65936
G1 X244.51 Y422.701 E1084.16744
G1 X171.8 Y349.99 E1104.68792
G1 X171.8 Y348.735 E1104.93837
G1 X171.835 Y347.773 E1105.13047
G1 X171.846 Y347.622 E1105.16068
G1 X171.858 Y347.504 E1105.18435
G1 X247.056 Y422.701 E1126.40671
G1 X249.601 Y422.701 E1126.9146
G1 X172.225 Y345.324 E1148.75192
G1 X172.386 Y344.704 E1148.87975
G1 X172.425 Y344.576 E1148.90645
G1 X172.703 Y343.762 E1149.0781
G1 X172.766 Y343.595 E1149.11372
G1 X172.848 Y343.402 E1149.15557
G1 X252.147 Y422.701 E1171.53546
G1 X254.692 Y422.701 E1172.04334
G1 X173.677 Y341.686 E1194.90753
G1 X174.106 Y340.982 E1195.07205
G1 X174.201 Y340.838 E1195.10648
G1 X174.69 Y340.153 E1195.27443
G1 X257.238 Y422.701 E1218.57126
G1 X259.783 Y422.701 E1219.07914
G1 X175.87 Y338.788 E1242.76121
G1 X175.979 Y338.673 E1242.79283
G1 X176.21 Y338.444 E1242.85774
G1 X176.884 Y337.816 E1243.04158
G1 X177.024 Y337.698 E1243.07812
G1 X177.192 Y337.564 E1243.121
G1 X262.329 Y422.701 E1267.1485
G1 X264.875 Y422.701 E1267.65658
G1 X178.664 Y336.49 E1291.98719
G1 X178.7 Y336.468 E1291.99561
G1 X179.45 Y336.029 E1292.16904
G1 X179.552 Y335.973 E1292.19226
G1 X180.317 Y335.597 E1292.36236
G1 X267.326 Y422.607 E1316.91832
G1 X267.513 Y422.59 E1316.9558
G1 X267.647 Y422.573 E1316.98275
G1 X268.537 Y422.426 E1317.16277
G1 X268.68 Y422.395 E1317.19197
G1 X269.469 Y422.204 E1317.35397
G1 X182.168 Y334.903 E1341.9922
G1 X182.318 Y334.855 E1342.02363
G1 X182.478 Y334.81 E1342.05679
G1 X183.318 Y334.605 E1342.22935
G1 X183.463 Y334.576 E1342.25886
G1 X184.256 Y334.445 E1342.41925
G1 X271.356 Y421.545 E1367.00075
G1 X271.5 Y421.488 E1367.03166
G1 X271.62 Y421.435 E1367.05784
G1 X272.446 Y421.029 E1367.24151
G1 X272.55 Y420.973 E1367.26508
G1 X273.041 Y420.685 E1367.37868
G1 X186.657 Y334.301 E1391.75811
G1 X189.203 Y334.301 E1392.26619
G1 X274.548 Y419.646 E1416.3524
G1 X274.979 Y419.301 E1416.46257
G1 X275.104 Y419.194 E1416.4954
G1 X275.805 Y418.543 E1416.68632
G1 X275.898 Y418.45 E1416.71256
G1 X191.748 Y334.301 E1440.46137
G1 X194.294 Y334.301 E1440.96945
G1 X277.103 Y417.11 E1464.33994
G1 X277.202 Y416.989 E1464.37114
G1 X277.279 Y416.886 E1464.3968
G1 X277.798 Y416.163 E1464.57441
G1 X277.892 Y416.02 E1464.60856
G1 X278.145 Y415.606 E1464.70539
G1 X196.84 Y334.301 E1487.65141
G1 X199.385 Y334.301 E1488.1593
G1 X279.013 Y413.928 E1510.6319
G1 X279.232 Y413.407 E1510.74468
G1 X279.297 Y413.24 E1510.78044
G1 X279.567 Y412.448 E1510.94743
G1 X279.621 Y412.267 E1510.98512
G1 X279.678 Y412.048 E1511.03028
G1 X201.931 Y334.301 E1532.97216
G1 X204.476 Y334.301 E1533.48004
G1 X280.094 Y409.918 E1554.82094
G1 X280.153 Y409.373 E1554.93033
G1 X280.164 Y409.228 E1554.95935
G1 X280.2 Y408.267 E1555.15126
G1 X280.2 Y407.479 E1555.30852
G1 X207.022 Y334.301 E1575.96093
G1 X209.568 Y334.301 E1576.46901
G1 X280.2 Y404.933 E1596.40289
G1 X280.2 Y402.388 E1596.91077
G1 X212.113 Y334.301 E1616.12639
G1 X214.659 Y334.301 E1616.63448
G1 X280.2 Y399.842 E1635.13156
G1 X280.2 Y397.297 E1635.63944
G1 X217.204 Y334.301 E1653.41828
G1 X219.75 Y334.301 E1653.92636
G1 X280.2 Y394.751 E1670.98665
G1 X280.2 Y392.205 E1671.49474
G1 X222.295 Y334.301 E1687.83664
G1 X224.841 Y334.301 E1688.34472
G1 X280.2 Y389.66 E1703.96822
G1 X280.2 Y387.114 E1704.47631
G1 X227.387 Y334.301 E1719.38128
G1 X229.932 Y334.301 E1719.88916
G1 X280.2 Y384.569 E1734.07587
G1 X280.2 Y382.023 E1734.58396
G1 X232.478 Y334.301 E1748.05214
G1 X235.023 Y334.301 E1748.56002
G1 X280.2 Y379.478 E1761.30994
G1 X280.2 Y376.932 E1761.81802
G1 X237.569 Y334.301 E1773.84941
G1 X240.115 Y334.301 E1774.3575
G1 X280.2 Y374.386 E1785.67035
G1 X280.2 Y371.841 E1786.17823
G1 X242.66 Y334.301 E1796.77283
G1 X245.206 Y334.301 E1797.28091
G1 X280.2 Y369.295 E1807.15697
G1 X280.2 Y366.75 E1807.66486
G1 X247.751 Y334.301 E1816.82267
G1 X250.297 Y334.301 E1817.33075
G1 X280.2 Y364.204 E1825.77002
G1 X280.2 Y361.658 E1826.2781
G1 X252.843 Y334.301 E1833.99884
G1 X255.388 Y334.301 E1834.50672
G1 X280.2 Y359.113 E1841.5092
G1 X280.2 Y356.567 E1842.01729
G1 X257.934 Y334.301 E1848.30123
G1 X260.479 Y334.301 E1848.80911
G1 X280.2 Y354.022 E1854.37481
G1 X280.2 Y351.476 E1854.88289
G1 X263.025 Y334.301 E1859.73004
G1 X265.57 Y334.301 E1860.23793
G1 X280.2 Y348.931 E1864.36683
G1 X280.2 Y348.758 E1864.40135
G1 X280.179 Y348.039 E1864.5449
G1 X280.169 Y347.873 E1864.57808
G1 X280.089 Y346.988 E1864.75542
G1 X280.072 Y346.86 E1864.78118
G1 X279.954 Y346.139 E1864.92698
G1 X268.368 Y334.553 E1868.1968
G1 X268.798 Y334.632 E1868.28405
G1 X268.915 Y334.658 E1868.30797
G1 X269.776 Y334.882 E1868.48551
G1 X269.947 Y334.934 E1868.52118
G1 X270.749 Y335.208 E1868.69031
G1 X270.906 Y335.268 E1868.72385
G1 X271.722 Y335.614 E1868.90072
G1 X271.876 Y335.686 E1868.93465
G1 X272.226 Y335.866 E1869.01319
G1 X278.636 Y342.276 E1870.82223
G0 F7200 X278.535 Y342.069
G1 F1125 X278.461 Y341.934 E1870.85295
G1 X278.037 Y341.208 E1871.02073
G1 X277.936 Y341.049 E1871.05832
G1 X277.443 Y340.334 E1871.23164
G1 X277.332 Y340.185 E1871.26872
G1 X276.803 Y339.525 E1871.43752
G1 X276.705 Y339.409 E1871.46782
G1 X276.041 Y338.695 E1871.6624
